flaticon/transport/hoverboard.svg

<svg xmlns="http://www.w3.org/2000/svg" width="32" height="32" viewBox="0 0 24 24">
    <path d="M 22.398438 3 L 21.601562 3 C 20.71875 3 20 3.71875 20 4.601562 L 20 5.398438 L 15.199219 5.398438 C 14.320312 5.398438 13.601562 6.121094 13.601562 7 L 13.601562 8.078125 C 13.601562 8.160156 13.558594 8.199219 13.480469 8.199219 L 10.519531 8.199219 C 10.441406 8.199219 10.398438 8.160156 10.398438 8.078125 L 10.398438 7 C 10.398438 6.121094 9.679688 5.398438 8.800781 5.398438 L 4 5.398438 L 4 4.601562 C 4 3.71875 3.28125 3 2.398438 3 L 1.601562 3 C 0.71875 3 0 3.71875 0 4.601562 L 0 19.398438 C 0 20.28125 0.71875 21 1.601562 21 L 2.398438 21 C 3.28125 21 4 20.28125 4 19.398438 L 4 17.398438 L 8.800781 17.398438 C 9.679688 17.398438 10.398438 16.679688 10.398438 15.800781 L 10.398438 12.320312 C 10.398438 12.238281 10.441406 12.199219 10.519531 12.199219 L 13.480469 12.199219 C 13.558594 12.199219 13.601562 12.238281 13.601562 12.320312 L 13.601562 15.800781 C 13.601562 16.679688 14.320312 17.398438 15.199219 17.398438 L 20 17.398438 L 20 19.398438 C 20 20.28125 20.71875 21 21.601562 21 L 22.398438 21 C 23.28125 21 24 20.28125 24 19.398438 L 24 4.601562 C 24 3.71875 23.28125 3 22.398438 3 Z M 0.800781 4.601562 C 0.800781 4.160156 1.160156 3.800781 1.601562 3.800781 L 2.398438 3.800781 C 2.839844 3.800781 3.199219 4.160156 3.199219 4.601562 L 3.199219 13.398438 L 0.800781 13.398438 Z M 3.199219 19.398438 C 3.199219 19.839844 2.839844 20.199219 2.398438 20.199219 L 1.601562 20.199219 C 1.160156 20.199219 0.800781 19.839844 0.800781 19.398438 L 0.800781 17.398438 L 3.199219 17.398438 Z M 9.601562 15.800781 C 9.601562 16.238281 9.238281 16.601562 8.800781 16.601562 L 0.800781 16.601562 L 0.800781 14.199219 L 9.601562 14.199219 Z M 13.480469 11.398438 L 10.519531 11.398438 C 10 11.398438 9.601562 11.800781 9.601562 12.320312 L 9.601562 13.398438 L 4 13.398438 L 4 6.199219 L 8.800781 6.199219 C 9.238281 6.199219 9.601562 6.558594 9.601562 7 L 9.601562 8.078125 C 9.601562 8.601562 10 9 10.519531 9 L 13.480469 9 C 14 9 14.398438 8.601562 14.398438 8.078125 L 14.398438 7 C 14.398438 6.558594 14.761719 6.199219 15.199219 6.199219 L 20 6.199219 L 20 13.398438 L 14.398438 13.398438 L 14.398438 12.320312 C 14.398438 11.800781 14 11.398438 13.480469 11.398438 Z M 23.199219 19.398438 C 23.199219 19.839844 22.839844 20.199219 22.398438 20.199219 L 21.601562 20.199219 C 21.160156 20.199219 20.800781 19.839844 20.800781 19.398438 L 20.800781 17.398438 L 23.199219 17.398438 Z M 23.199219 16.601562 L 15.199219 16.601562 C 14.761719 16.601562 14.398438 16.238281 14.398438 15.800781 L 14.398438 14.199219 L 23.199219 14.199219 Z M 20.800781 13.398438 L 20.800781 4.601562 C 20.800781 4.160156 21.160156 3.800781 21.601562 3.800781 L 22.398438 3.800781 C 22.839844 3.800781 23.199219 4.160156 23.199219 4.601562 L 23.199219 13.398438 Z M 20.800781 13.398438"/>
    <path d="M8.398438 7L5.199219 7C4.960938 7 4.800781 7.160156 4.800781 7.398438 4.800781 7.640625 4.960938 7.800781 5.199219 7.800781L8.398438 7.800781C8.640625 7.800781 8.800781 7.640625 8.800781 7.398438 8.800781 7.160156 8.640625 7 8.398438 7zM8.398438 8.601562L5.199219 8.601562C4.960938 8.601562 4.800781 8.761719 4.800781 9 4.800781 9.238281 4.960938 9.398438 5.199219 9.398438L8.398438 9.398438C8.640625 9.398438 8.800781 9.238281 8.800781 9 8.800781 8.761719 8.640625 8.601562 8.398438 8.601562zM8.398438 10.199219L5.199219 10.199219C4.960938 10.199219 4.800781 10.359375 4.800781 10.601562 4.800781 10.839844 4.960938 11 5.199219 11L8.398438 11C8.640625 11 8.800781 10.839844 8.800781 10.601562 8.800781 10.359375 8.640625 10.199219 8.398438 10.199219zM8.398438 11.800781L5.199219 11.800781C4.960938 11.800781 4.800781 11.960938 4.800781 12.199219 4.800781 12.441406 4.960938 12.601562 5.199219 12.601562L8.398438 12.601562C8.640625 12.601562 8.800781 12.441406 8.800781 12.199219 8.800781 11.960938 8.640625 11.800781 8.398438 11.800781zM15.601562 7.800781L18.800781 7.800781C19.039062 7.800781 19.199219 7.640625 19.199219 7.398438 19.199219 7.160156 19.039062 7 18.800781 7L15.601562 7C15.359375 7 15.199219 7.160156 15.199219 7.398438 15.199219 7.640625 15.359375 7.800781 15.601562 7.800781zM15.601562 9.398438L18.800781 9.398438C19.039062 9.398438 19.199219 9.238281 19.199219 9 19.199219 8.761719 19.039062 8.601562 18.800781 8.601562L15.601562 8.601562C15.359375 8.601562 15.199219 8.761719 15.199219 9 15.199219 9.238281 15.359375 9.398438 15.601562 9.398438zM15.601562 11L18.800781 11C19.039062 11 19.199219 10.839844 19.199219 10.601562 19.199219 10.359375 19.039062 10.199219 18.800781 10.199219L15.601562 10.199219C15.359375 10.199219 15.199219 10.359375 15.199219 10.601562 15.199219 10.839844 15.359375 11 15.601562 11zM15.601562 12.601562L18.800781 12.601562C19.039062 12.601562 19.199219 12.441406 19.199219 12.199219 19.199219 11.960938 19.039062 11.800781 18.800781 11.800781L15.601562 11.800781C15.359375 11.800781 15.199219 11.960938 15.199219 12.199219 15.199219 12.441406 15.359375 12.601562 15.601562 12.601562zM2.800781 15.398438C2.800781 15.640625 2.960938 15.800781 3.199219 15.800781L7.199219 15.800781C7.441406 15.800781 7.601562 15.640625 7.601562 15.398438 7.601562 15.160156 7.441406 15 7.199219 15L3.199219 15C2.960938 15 2.800781 15.160156 2.800781 15.398438zM16.800781 15C16.558594 15 16.398438 15.160156 16.398438 15.398438 16.398438 15.640625 16.558594 15.800781 16.800781 15.800781L20.800781 15.800781C21.039062 15.800781 21.199219 15.640625 21.199219 15.398438 21.199219 15.160156 21.039062 15 20.800781 15zM10.800781 9.800781C10.558594 9.800781 10.398438 9.960938 10.398438 10.199219 10.398438 10.441406 10.558594 10.601562 10.800781 10.601562 11.039062 10.601562 11.199219 10.441406 11.199219 10.199219 11.199219 9.960938 11.039062 9.800781 10.800781 9.800781zM13.199219 9.800781C12.960938 9.800781 12.800781 9.960938 12.800781 10.199219 12.800781 10.441406 12.960938 10.601562 13.199219 10.601562 13.441406 10.601562 13.601562 10.441406 13.601562 10.199219 13.601562 9.960938 13.441406 9.800781 13.199219 9.800781zM13.199219 9.800781"/>
</svg>

<svg xmlns="http://www.w3.org/2000/svg" width="32" height="32" viewBox="0 0 24 24">
    <path d="M22.398 3h-.796C20.719 3 20 3.719 20 4.602v.796h-4.8c-.88 0-1.598.723-1.598 1.602v1.078c0 .082-.043.121-.122.121h-2.96c-.079 0-.122-.039-.122-.12V7c0-.879-.718-1.602-1.597-1.602H4v-.796C4 3.719 3.281 3 2.398 3h-.796C.719 3 0 3.719 0 4.602v14.796C0 20.281.719 21 1.602 21h.796C3.281 21 4 20.281 4 19.398v-2h4.8c.88 0 1.598-.718 1.598-1.597v-3.48c0-.083.043-.122.122-.122h2.96c.079 0 .122.04.122.121v3.48c0 .88.718 1.598 1.597 1.598H20v2c0 .883.719 1.602 1.602 1.602h.796c.883 0 1.602-.719 1.602-1.602V4.602C24 3.719 23.281 3 22.398 3zM.801 4.602c0-.442.36-.801.8-.801h.797c.442 0 .801.36.801.8v8.797H.801zm2.398 14.796c0 .442-.36.801-.8.801h-.797c-.442 0-.801-.36-.801-.8v-2h2.398zm6.403-3.597c0 .437-.364.8-.801.8h-8V14.2h8.8zm3.878-4.403h-2.96a.906.906 0 0 0-.918.922v1.078H4V6.2h4.8c.438 0 .802.36.802.801v1.078c0 .524.398.922.918.922h2.96c.52 0 .918-.398.918-.922V7c0-.441.364-.8.801-.8H20v7.198h-5.602V12.32a.906.906 0 0 0-.918-.922zm9.72 8c0 .442-.36.801-.802.801h-.796c-.442 0-.801-.36-.801-.8v-2h2.398zm0-2.796h-8a.807.807 0 0 1-.802-.801v-1.602H23.2zm-2.4-3.204V4.602c0-.442.36-.801.802-.801h.796c.442 0 .801.36.801.8v8.797zm0 0"/>
    <path d="M8.398 7H5.2c-.238 0-.398.16-.398.398 0 .243.16.403.398.403h3.2c.242 0 .402-.16.402-.403C8.8 7.16 8.64 7 8.398 7zm0 0M8.398 8.602H5.2c-.238 0-.398.16-.398.398 0 .238.16.398.398.398h3.2c.242 0 .402-.16.402-.398 0-.238-.16-.398-.403-.398zm0 0M8.398 10.2H5.2c-.238 0-.398.16-.398.402 0 .238.16.398.398.398h3.2c.242 0 .402-.16.402-.398 0-.243-.16-.403-.403-.403zm0 0M8.398 11.8H5.2c-.238 0-.398.16-.398.4 0 .241.16.402.398.402h3.2c.242 0 .402-.16.402-.403 0-.238-.16-.398-.403-.398zm0 0M15.602 7.8H18.8c.238 0 .398-.16.398-.402 0-.238-.16-.398-.398-.398h-3.2c-.242 0-.402.16-.402.398 0 .243.16.403.403.403zm0 0M15.602 9.398H18.8c.238 0 .398-.16.398-.398 0-.238-.16-.398-.398-.398h-3.2c-.242 0-.402.16-.402.398 0 .238.16.398.403.398zm0 0M15.602 11H18.8c.238 0 .398-.16.398-.398 0-.243-.16-.403-.398-.403h-3.2c-.242 0-.402.16-.402.403 0 .238.16.398.403.398zm0 0M15.602 12.602H18.8c.238 0 .398-.16.398-.403 0-.238-.16-.398-.398-.398h-3.2c-.242 0-.402.16-.402.398 0 .242.16.403.403.403zm0 0M2.8 15.398c0 .243.16.403.4.403h4c.241 0 .402-.16.402-.403 0-.238-.16-.398-.403-.398h-4c-.238 0-.398.16-.398.398zm0 0M16.8 15c-.241 0-.402.16-.402.398 0 .243.16.403.403.403h4c.238 0 .398-.16.398-.403 0-.238-.16-.398-.398-.398zm0 0M10.8 9.8c-.241 0-.402.16-.402.4 0 .241.16.402.403.402.238 0 .398-.16.398-.403 0-.238-.16-.398-.398-.398zm0 0M13.2 9.8c-.24 0-.4.16-.4.4 0 .241.16.402.4.402.241 0 .402-.16.402-.403 0-.238-.16-.398-.403-.398zm0 0"/>
</svg>
